src/assets/filled/Scanning.svg

<svg width="24" height="24" viewBox="0 0 24 24"  xmlns="http://www.w3.org/2000/svg">
<path d="M2 9.75C1.59 9.75 1.25 9.41 1.25 9V6.5C1.25 3.6 3.61 1.25 6.5 1.25H9C9.41 1.25 9.75 1.59 9.75 2C9.75 2.41 9.41 2.75 9 2.75H6.5C4.43 2.75 2.75 4.43 2.75 6.5V9C2.75 9.41 2.41 9.75 2 9.75Z" />
<path d="M22 9.75C21.59 9.75 21.25 9.41 21.25 9V6.5C21.25 4.43 19.57 2.75 17.5 2.75H15C14.59 2.75 14.25 2.41 14.25 2C14.25 1.59 14.59 1.25 15 1.25H17.5C20.39 1.25 22.75 3.6 22.75 6.5V9C22.75 9.41 22.41 9.75 22 9.75Z" />
<path d="M17.5 22.75H16C15.59 22.75 15.25 22.41 15.25 22C15.25 21.59 15.59 21.25 16 21.25H17.5C19.57 21.25 21.25 19.57 21.25 17.5V16C21.25 15.59 21.59 15.25 22 15.25C22.41 15.25 22.75 15.59 22.75 16V17.5C22.75 20.4 20.39 22.75 17.5 22.75Z" />
<path d="M9 22.75H6.5C3.61 22.75 1.25 20.4 1.25 17.5V15C1.25 14.59 1.59 14.25 2 14.25C2.41 14.25 2.75 14.59 2.75 15V17.5C2.75 19.57 4.43 21.25 6.5 21.25H9C9.41 21.25 9.75 21.59 9.75 22C9.75 22.41 9.41 22.75 9 22.75Z" />
<path d="M8.50012 11.3801C10.0907 11.3801 11.3801 10.0907 11.3801 8.50012C11.3801 6.90954 10.0907 5.62012 8.50012 5.62012C6.90954 5.62012 5.62012 6.90954 5.62012 8.50012C5.62012 10.0907 6.90954 11.3801 8.50012 11.3801Z" />
<path d="M7.50012 18.3801C8.53841 18.3801 9.38012 17.5384 9.38012 16.5001C9.38012 15.4618 8.53841 14.6201 7.50012 14.6201C6.46182 14.6201 5.62012 15.4618 5.62012 16.5001C5.62012 17.5384 6.46182 18.3801 7.50012 18.3801Z" />
<path d="M16.5001 9.38012C17.5384 9.38012 18.3801 8.53841 18.3801 7.50012C18.3801 6.46182 17.5384 5.62012 16.5001 5.62012C15.4618 5.62012 14.6201 6.46182 14.6201 7.50012C14.6201 8.53841 15.4618 9.38012 16.5001 9.38012Z" />
<path d="M15.5001 18.3801C17.0907 18.3801 18.3801 17.0907 18.3801 15.5001C18.3801 13.9095 17.0907 12.6201 15.5001 12.6201C13.9095 12.6201 12.6201 13.9095 12.6201 15.5001C12.6201 17.0907 13.9095 18.3801 15.5001 18.3801Z" />
</svg>

<?xml version="1.0" encoding="UTF-8"?>
<svg width="24" height="24" viewBox="0 0 24 24" xmlns="http://www.w3.org/2000/svg">
 <path d="m2 9.75c-0.41 0-0.75-0.34-0.75-0.75v-2.5c0-2.9 2.36-5.25 5.25-5.25h2.5c0.41 0 0.75 0.34 0.75 0.75s-0.34 0.75-0.75 0.75h-2.5c-2.07 0-3.75 1.68-3.75 3.75v2.5c0 0.41-0.34 0.75-0.75 0.75z"/>
 <path d="m22 9.75c-0.41 0-0.75-0.34-0.75-0.75v-2.5c0-2.07-1.68-3.75-3.75-3.75h-2.5c-0.41 0-0.75-0.34-0.75-0.75s0.34-0.75 0.75-0.75h2.5c2.89 0 5.25 2.35 5.25 5.25v2.5c0 0.41-0.34 0.75-0.75 0.75z"/>
 <path d="m17.5 22.75h-1.5c-0.41 0-0.75-0.34-0.75-0.75s0.34-0.75 0.75-0.75h1.5c2.07 0 3.75-1.68 3.75-3.75v-1.5c0-0.41 0.34-0.75 0.75-0.75s0.75 0.34 0.75 0.75v1.5c0 2.9-2.36 5.25-5.25 5.25z"/>
 <path d="m9 22.75h-2.5c-2.89 0-5.25-2.35-5.25-5.25v-2.5c0-0.41 0.34-0.75 0.75-0.75s0.75 0.34 0.75 0.75v2.5c0 2.07 1.68 3.75 3.75 3.75h2.5c0.41 0 0.75 0.34 0.75 0.75s-0.34 0.75-0.75 0.75z"/>
 <path d="m8.5001 11.38c1.5906 0 2.88-1.2894 2.88-2.88s-1.2894-2.88-2.88-2.88-2.88 1.2894-2.88 2.88 1.2894 2.88 2.88 2.88z"/>
 <path d="m7.5001 18.38c1.0383 0 1.88-0.8417 1.88-1.88s-0.84171-1.88-1.88-1.88c-1.0383 0-1.88 0.8417-1.88 1.88s0.8417 1.88 1.88 1.88z"/>
 <path d="m16.5 9.3801c1.0383 0 1.88-0.84171 1.88-1.88 0-1.0383-0.8417-1.88-1.88-1.88s-1.88 0.8417-1.88 1.88c0 1.0383 0.8417 1.88 1.88 1.88z"/>
 <path d="m15.5 18.38c1.5906 0 2.88-1.2894 2.88-2.88s-1.2894-2.88-2.88-2.88-2.88 1.2894-2.88 2.88 1.2894 2.88 2.88 2.88z"/>
</svg>
